src/icons/rosneft.svg

<svg width="241" height="76" viewBox="0 0 241 76" fill="none" xmlns="http://www.w3.org/2000/svg">
<path d="M22.2598 43.2397H15.6528V75.8678H22.2598V43.2397Z" fill="#FFD200"/>
<path d="M30.064 36.5029H23.457V75.868H30.064V36.5029Z" fill="#FFD200"/>
<path d="M37.8682 43.2397H31.2612V75.8678H37.8682V43.2397Z" fill="#FFD200"/>
<path fill-rule="evenodd" clip-rule="evenodd" d="M6.60699 44.5168L0 38.7045V21.9722H6.60699V44.5168Z" fill="white"/>
<path fill-rule="evenodd" clip-rule="evenodd" d="M14.411 51.8262L7.84839 45.3974V14.5747H14.411V51.8262Z" fill="white"/>
<path d="M22.2598 7.30957H15.6528V42.2273H22.2598V7.30957Z" fill="white"/>
<path d="M30.064 0H23.457V35.0498H30.064V0Z" fill="white"/>
<path fill-rule="evenodd" clip-rule="evenodd" d="M46.9141 44.5168L53.4767 38.7045V21.9722H46.9141V44.5168Z" fill="white"/>
<path fill-rule="evenodd" clip-rule="evenodd" d="M39.0657 51.8262L45.6727 45.3974V14.5747H39.0657V51.8262Z" fill="white"/>
<path d="M37.8682 7.30957H31.2612V42.2273H37.8682V7.30957Z" fill="white"/>
<path fill-rule="evenodd" clip-rule="evenodd" d="M100.391 74.7231C99.5483 75.5597 97.9963 75.956 95.7349 75.956H88.3297C86.1126 75.956 84.5163 75.5597 83.6738 74.7671C82.7869 73.9745 82.3435 72.7416 82.3435 71.1564V64.0232C82.3435 62.394 82.7869 61.2051 83.6738 60.4125C84.5606 59.6199 86.1126 59.2236 88.3297 59.2236H95.7349C97.9963 59.2236 99.5483 59.6199 100.391 60.4565C101.233 61.2932 101.632 62.482 101.632 64.0672V71.2005C101.632 72.7416 101.233 73.9305 100.391 74.7231ZM96.5774 65.6964C96.5774 64.7717 96.4 64.1112 96.0009 63.6709C95.6018 63.2306 94.7593 63.0545 93.4291 63.0545H90.5912C89.3496 63.0545 88.5071 63.2746 88.108 63.759C87.7089 64.1993 87.4872 64.8598 87.4872 65.7404V69.5713C87.4872 70.4079 87.7089 71.0684 88.108 71.5527C88.5071 72.0371 89.3496 72.2572 90.5912 72.2572H93.4291C94.7593 72.2572 95.6018 72.0371 96.0009 71.6408C96.3557 71.2005 96.5774 70.54 96.6217 69.6593V65.6964H96.5774Z" fill="white"/>
<path fill-rule="evenodd" clip-rule="evenodd" d="M122.606 74.7231C121.764 75.5597 120.256 75.956 117.995 75.956H110.545C108.328 75.956 106.732 75.5597 105.889 74.7671C105.002 73.9745 104.603 72.7416 104.603 71.1564V64.0232C104.603 62.394 105.047 61.2051 105.889 60.4125C106.776 59.6199 108.328 59.2236 110.545 59.2236H117.95C120.212 59.2236 121.764 59.6199 122.562 60.4565C123.404 61.2932 123.803 62.482 123.803 64.0672V65.6964H118.748C118.748 64.7717 118.571 64.1112 118.172 63.6709C117.773 63.2306 116.93 63.0545 115.6 63.0545H112.762C111.521 63.0545 110.722 63.2746 110.279 63.759C109.88 64.1993 109.658 64.8598 109.658 65.7404V69.5713C109.658 70.4079 109.88 71.0684 110.279 71.5527C110.678 72.0371 111.521 72.2572 112.762 72.2572H115.6C116.93 72.2572 117.773 72.0371 118.172 71.6408C118.571 71.2005 118.748 70.54 118.748 69.6153H123.848V71.2445C123.848 72.7416 123.449 73.9305 122.606 74.7231Z" fill="white"/>
<path fill-rule="evenodd" clip-rule="evenodd" d="M131.874 76H126.819V71.1564V64.0232V59.2236H131.874V65.6083H140.964V59.2236H146.063V64.0232V71.1564V76H140.964V69.4392H131.874V76Z" fill="white"/>
<path fill-rule="evenodd" clip-rule="evenodd" d="M155.553 69.4392H154.089C154.089 70.3198 154.311 71.0243 154.755 71.4647C155.198 71.949 155.996 72.1692 157.238 72.1692H160.076H168.279V75.956H162.381H154.976C152.715 75.956 151.163 75.5597 150.32 74.7671C149.434 73.9745 149.034 72.7416 149.034 71.1564V64.0232C149.034 62.394 149.478 61.2051 150.32 60.4125C151.207 59.6199 152.759 59.2236 154.976 59.2236H162.381H168.279V63.0545H160.076H157.238C155.996 63.0545 155.198 63.2746 154.755 63.759C154.356 64.1993 154.134 64.8598 154.089 65.6524H155.553H168.279V69.4832H155.553V69.4392Z" fill="white"/>
<path fill-rule="evenodd" clip-rule="evenodd" d="M207.211 63.0104H200.294V59.2236H206.103H213.552H219.494V63.0104H212.266V76H207.211V63.0104Z" fill="white"/>
<path fill-rule="evenodd" clip-rule="evenodd" d="M195.815 62.218H187.967V59.1357H182.956V62.218H174.93C174.93 62.218 170.363 62.3501 170.363 67.5019C170.363 72.6537 175.063 72.6537 175.063 72.6537H182.956V75.9561H187.967V72.6537H195.682C195.682 72.6537 200.382 72.6097 200.382 67.5019C200.382 62.3501 195.815 62.218 195.815 62.218ZM193.11 69.3072H187.967V65.7406H193.066C193.066 65.7406 194.84 65.5204 194.84 67.59C194.84 69.3953 193.11 69.3072 193.11 69.3072ZM176.083 67.634C176.083 65.5205 177.857 65.7846 177.857 65.7846H182.956V69.3513H177.812C177.812 69.3072 176.083 69.3953 176.083 67.634Z" fill="white"/>
<path fill-rule="evenodd" clip-rule="evenodd" d="M78.1756 60.4565C77.3331 59.6199 75.7811 59.2236 73.5196 59.2236H60.1726V76H65.2276V70.2318H73.5196C75.7811 70.2318 77.3331 69.8355 78.1756 68.9988C79.0181 68.1622 79.4171 66.9734 79.4171 65.4322V64.1112C79.4171 62.482 79.0181 61.2932 78.1756 60.4565ZM72.7215 66.4009H65.272V63.0545H72.7215C73.6526 63.0545 74.4065 63.803 74.4065 64.7277C74.4065 65.6524 73.6526 66.4009 72.7215 66.4009Z" fill="white"/>
<path fill-rule="evenodd" clip-rule="evenodd" d="M241 71.1564V69.8355C241 68.2943 240.601 67.0614 239.758 66.2248C238.916 65.3882 237.364 64.9919 235.102 64.9919H226.81V59.2236H221.755V76H235.102C237.364 76 238.916 75.6037 239.758 74.7671C240.556 73.9305 241 72.6976 241 71.1564ZM235.945 70.4959C235.945 71.4206 235.191 72.1692 234.26 72.1692H226.81V68.8227H234.26C235.191 68.8227 235.945 69.5713 235.945 70.4959Z" fill="white"/>
</svg>

<svg xmlns="http://www.w3.org/2000/svg" width="241" height="76" fill="none"><path fill="#FFD200" d="M22.26 43.24h-6.607v32.628h6.607V43.24ZM30.064 36.503h-6.607v39.365h6.607V36.503ZM37.868 43.24h-6.607v32.628h6.607V43.24Z"/><path fill="#fff" fill-rule="evenodd" d="M6.607 44.517 0 38.704V21.973h6.607v22.545ZM14.411 51.826l-6.563-6.429V14.575h6.563v37.251Z" clip-rule="evenodd"/><path fill="#fff" d="M22.26 7.31h-6.607v34.917h6.607V7.31ZM30.064 0h-6.607v35.05h6.607V0Z"/><path fill="#fff" fill-rule="evenodd" d="m46.914 44.517 6.563-5.813V21.973h-6.563v22.545ZM39.066 51.826l6.607-6.429V14.575h-6.607v37.251Z" clip-rule="evenodd"/><path fill="#fff" d="M37.868 7.31h-6.607v34.917h6.607V7.31Z"/><path fill="#fff" fill-rule="evenodd" d="M100.391 74.723c-.843.837-2.395 1.233-4.656 1.233H88.33c-2.217 0-3.814-.396-4.656-1.189-.887-.792-1.33-2.025-1.33-3.61v-7.134c0-1.629.443-2.818 1.33-3.61.887-.793 2.439-1.19 4.656-1.19h7.405c2.261 0 3.813.397 4.656 1.233.842.837 1.241 2.026 1.241 3.611v7.134c0 1.54-.399 2.73-1.241 3.522Zm-3.814-9.027c0-.924-.177-1.585-.576-2.025-.4-.44-1.242-.617-2.572-.617h-2.838c-1.241 0-2.084.22-2.483.705-.4.44-.62 1.1-.62 1.981v3.831c0 .837.22 1.497.62 1.982.4.484 1.242.704 2.483.704h2.838c1.33 0 2.173-.22 2.572-.616.355-.44.576-1.101.62-1.982v-3.963h-.044ZM122.606 74.723c-.842.837-2.35 1.233-4.611 1.233h-7.45c-2.217 0-3.813-.396-4.656-1.189-.887-.792-1.286-2.025-1.286-3.61v-7.134c0-1.629.444-2.818 1.286-3.61.887-.793 2.439-1.19 4.656-1.19h7.405c2.262 0 3.814.397 4.612 1.233.842.837 1.241 2.026 1.241 3.611v1.63h-5.055c0-.925-.177-1.586-.576-2.026-.399-.44-1.242-.617-2.572-.617h-2.838c-1.241 0-2.04.22-2.483.705-.399.44-.621 1.1-.621 1.981v3.831c0 .837.222 1.497.621 1.982.399.484 1.242.704 2.483.704h2.838c1.33 0 2.173-.22 2.572-.616.399-.44.576-1.101.576-2.026h5.1v1.63c0 1.497-.399 2.685-1.242 3.478ZM131.874 76h-5.055V59.223h5.055v6.385h9.09v-6.384h5.099V76h-5.099v-6.56h-9.09V76ZM155.553 69.44h-1.464c0 .88.222 1.584.666 2.025.443.484 1.241.704 2.483.704h11.041v3.787h-13.303c-2.261 0-3.813-.396-4.656-1.189-.886-.792-1.286-2.025-1.286-3.61v-7.134c0-1.629.444-2.818 1.286-3.61.887-.793 2.439-1.19 4.656-1.19h13.303v3.831h-11.041c-1.242 0-2.04.22-2.483.705-.399.44-.621 1.1-.666 1.893H168.279v3.831h-12.726v-.044ZM207.211 63.01h-6.917v-3.786h19.2v3.786h-7.228V76h-5.055V63.01ZM195.815 62.218h-7.848v-3.082h-5.011v3.082h-8.026s-4.567.132-4.567 5.284 4.7 5.152 4.7 5.152h7.893v3.302h5.011v-3.302h7.715s4.7-.044 4.7-5.152c0-5.152-4.567-5.284-4.567-5.284Zm-2.705 7.09h-5.143V65.74h5.099s1.774-.22 1.774 1.849c0 1.805-1.73 1.717-1.73 1.717Zm-17.027-1.674c0-2.114 1.774-1.85 1.774-1.85h5.099v3.567h-5.144c0-.044-1.729.044-1.729-1.717ZM78.176 60.456c-.843-.836-2.395-1.232-4.656-1.232H60.173V76h5.055v-5.768h8.292c2.261 0 3.813-.397 4.656-1.233.842-.837 1.241-2.026 1.241-3.567v-1.32c0-1.63-.399-2.819-1.241-3.655Zm-5.454 5.945h-7.45v-3.346h7.45c.93 0 1.684.748 1.684 1.673 0 .924-.753 1.673-1.684 1.673ZM241 71.156v-1.32c0-1.542-.399-2.775-1.242-3.611-.842-.837-2.394-1.233-4.656-1.233h-8.292v-5.768h-5.055V76h13.347c2.262 0 3.814-.396 4.656-1.233.798-.837 1.242-2.07 1.242-3.61Zm-5.055-.66c0 .925-.754 1.673-1.685 1.673h-7.45v-3.346h7.45c.931 0 1.685.748 1.685 1.673Z" clip-rule="evenodd"/></svg>
